outputs/icons/image/eye_dropper_sharp.svg

<svg width="1200" height="1200" viewBox="0 0 1200 1200" fill="none" xmlns="http://www.w3.org/2000/svg"><g clip-path="url(#clip0_124_540)"><path d="M1071 316.992L883.5 129.492L692.5 320.492L595.5 224.992L525 295.492L596 366.492L150 812.49V1049.99H387.5L833.5 603.99L904.5 674.99L975 604.49L879 508.49L1071 316.992ZM346 949.99L250 853.99L653 450.992L749 546.99L346 949.99Z" fill="#1D1E23"/></g><defs><clipPath id="clip0_124_540"><path width="24" fill="white" d="M0 0H1200V1200H0V0z"/></clipPath></defs></svg>

<svg xmlns="http://www.w3.org/2000/svg" width="1200" height="1200" fill="none"><g clip-path="url(#a)"><path fill="#000" d="m1071 317.005-187.5-187.5-191 191-97-95.5-70.5 70.5 71 71-446 446v237.5h237.5l446-446 71 71 70.5-70.5-96-96zm-725 633-96-96 403-403 96 96z"/></g><defs><clipPath id="a"><path fill="#fff" d="M0 0h1200v1200H0z"/></clipPath></defs></svg>
